X: 022
T: da Auld Planti Crub
C: Tom Anderson
R: Slow Air
B: The Tom Anderson Collection 2004 p.2 #2
Z: 2019 John Chambers <jc:trillian.mit.edu>
M: C
L: 1/8
K: Eb
uB,2 |\
("Eb"E3 D) ("Ab"C2 B,2) | "G/Eb"E2 B2 "Eb7"G2 E2 | ("Ab"C2 A2) ("G/Eb"B,2 "Eb"G2) | ("F7"F=A) Bc ("Bb7"B2 B,2) |
("Eb"vE3 D) ("Ab"C2 B,2) | "Cm"E2 B2 "Bb/Eb"G2 E2 | ("F/Ab"C3 A,) ("Bb7"DB,) GF | "Eb"E4- E2 :|
|: uB2 |\
("Eb"ef) gf ("Eb"e2 "G/Eb"B2) | ("Ab"cA) "Bb"FB ("Eb"G2 E2) | "Ab"cc (df) ("G/Eb"Be) (fe) | ("F7"ufd) (ec) "Bb7"B4 |
"Fm"BB (AG) ("Bb7"F2 B,2) | ("Eb"GB) "Ab"ce H"Eb - Eb7"g4 | ("Ab"ce) "Bb/Eb"BG ("Fm"FB,) "Bb7"DF | "Eb"E4- E2 :|
%%begintext align
%% A planti crub was a little sheep-proof enclosure -- usually out on
%% the hill -- where cabbage seed was sown to produce young plants.
%% These were then transplanted into kailyards nearer the croft-house
%% in the following spring to grow to maturity.
%% (1984)
%%endtext
